packages/webapp/public/images/template-logos/google-calendar.svg

<svg width="62" height="62" viewBox="0 0 62 62" fill="none" xmlns="http://www.w3.org/2000/svg">
<g clip-path="url(#clip0_496_1088)">
<path d="M42.579 19.4245L32.158 18.2666L19.4211 19.4245L18.2631 31.0035L19.4209 42.5825L31 44.0299L42.579 42.5825L43.7369 30.7142L42.579 19.4245Z" fill="white"/>
<path d="M24.1714 37.3881C23.3059 36.8033 22.7067 35.9495 22.3795 34.8204L24.3886 33.9926C24.5709 34.6873 24.8893 35.2257 25.3438 35.6078C25.7955 35.99 26.3455 36.1781 26.9881 36.1781C27.6452 36.1781 28.2097 35.9783 28.6814 35.5788C29.1531 35.1793 29.3907 34.6697 29.3907 34.0533C29.3907 33.4223 29.1417 32.9069 28.6438 32.5076C28.1459 32.1083 27.5207 31.9083 26.7738 31.9083H25.6131V29.9197H26.655C27.2976 29.9197 27.839 29.7461 28.279 29.3988C28.719 29.0514 28.939 28.5766 28.939 27.9716C28.939 27.4333 28.7421 27.0047 28.3486 26.6835C27.955 26.3623 27.4569 26.2002 26.8519 26.2002C26.2614 26.2002 25.7924 26.3566 25.445 26.6721C25.0976 26.9876 24.8457 27.3754 24.6867 27.8328L22.6981 27.0049C22.9614 26.258 23.445 25.598 24.154 25.0278C24.8633 24.4576 25.7693 24.1709 26.8693 24.1709C27.6826 24.1709 28.415 24.3273 29.0636 24.6428C29.7119 24.9583 30.2214 25.3954 30.589 25.9511C30.9567 26.5097 31.139 27.1352 31.139 27.8297C31.139 28.539 30.9683 29.1381 30.6267 29.6302C30.285 30.1223 29.8652 30.4985 29.3674 30.7621V30.8807C30.0245 31.1557 30.56 31.5754 30.9826 32.14C31.4024 32.7045 31.6136 33.379 31.6136 34.1664C31.6136 34.9538 31.4138 35.6571 31.0143 36.2738C30.6148 36.8904 30.0619 37.3766 29.3614 37.7297C28.6581 38.0828 27.8679 38.2623 26.9907 38.2623C25.9748 38.2652 25.0369 37.9728 24.1714 37.3881Z" fill="#1A73E8"/>
<path d="M36.5 27.4177L34.3057 29.0127L33.2029 27.3396L37.16 24.4854H38.6769V37.9487H36.5V27.4177Z" fill="#1A73E8"/>
<path d="M42.579 53.0033L53 42.5823L47.7895 40.2666L42.579 42.5823L40.2633 47.7928L42.579 53.0033Z" fill="#EA4335"/>
<path d="M17.1052 47.7896L19.4209 53.0001H42.5787V42.5791H19.4209L17.1052 47.7896Z" fill="#34A853"/>
<path d="M12.4736 9.00195C10.5545 9.00195 9 10.5565 9 12.4755V42.5808L14.2105 44.8965L19.421 42.5808V19.4229H42.5788L44.8945 14.2124L42.579 9.00195H12.4736Z" fill="#4285F4"/>
<path d="M9 42.5791V49.5265C9 51.4458 10.5545 53.0001 12.4736 53.0001H19.421V42.5791H9Z" fill="#188038"/>
<path d="M42.5791 19.4231V42.581H53.0001V19.4231L47.7896 17.1074L42.5791 19.4231Z" fill="#FBBC04"/>
<path d="M53.0001 19.4229V12.4755C53.0001 10.5563 51.4455 9.00195 49.5265 9.00195H42.5791V19.4229H53.0001Z" fill="#1967D2"/>
</g>
<defs>
<clipPath id="clip0_496_1088">
<rect width="44" height="44" fill="white" transform="translate(9 9)"/>
</clipPath>
</defs>
</svg>

<svg xmlns="http://www.w3.org/2000/svg" width="62" height="62" fill="none"><g clip-path="url(#A)"><path d="M42.579 19.425l-10.421-1.158-12.737 1.158-1.158 11.579 1.158 11.579L31 44.03l11.579-1.447 1.158-11.868-1.158-11.29z" fill="#fff"/><g fill="#1a73e8"><path d="M24.171 37.388c-.865-.585-1.465-1.439-1.792-2.568l2.009-.828c.182.695.501 1.233.955 1.615s1.002.57 1.644.57c.657 0 1.222-.2 1.693-.599s.709-.909.709-1.526a1.89 1.89 0 0 0-.747-1.546c-.498-.399-1.123-.599-1.87-.599h-1.161V29.92h1.042c.643 0 1.184-.174 1.624-.521s.66-.822.66-1.427c0-.538-.197-.967-.59-1.288s-.892-.483-1.497-.483c-.591 0-1.059.156-1.407.472a2.76 2.76 0 0 0-.758 1.161l-1.989-.828c.263-.747.747-1.407 1.456-1.977s1.615-.857 2.715-.857c.813 0 1.546.156 2.194.472s1.158.753 1.525 1.308.55 1.184.55 1.879c0 .709-.171 1.308-.512 1.8a3.53 3.53 0 0 1-1.259 1.132v.119a3.82 3.82 0 0 1 1.615 1.259c.42.565.631 1.239.631 2.026s-.2 1.491-.599 2.107a4.15 4.15 0 0 1-1.653 1.456c-.703.353-1.494.533-2.371.533-1.016.003-1.954-.29-2.819-.874zm12.329-9.97l-2.194 1.595-1.103-1.673 3.957-2.854h1.517v13.463H36.5V27.418z"/></g><path d="M42.579 53.004L53 42.583l-5.211-2.316-5.21 2.316-2.316 5.211 2.316 5.21z" fill="#ea4335"/><path d="M17.105 47.79l2.316 5.21h23.158V42.58H19.421l-2.316 5.211z" fill="#34a853"/><path d="M12.474 9.002C10.555 9.002 9 10.557 9 12.476v30.105l5.211 2.316 5.211-2.316V19.423h23.158l2.316-5.21-2.315-5.21H12.474z" fill="#4285f4"/><path d="M9 42.58v6.947c0 1.919 1.555 3.474 3.474 3.474h6.947V42.58H9z" fill="#188038"/><path d="M42.579 19.423v23.158H53V19.423l-5.211-2.316-5.211 2.316z" fill="#fbbc04"/><path d="M53 19.423v-6.947c0-1.919-1.555-3.474-3.474-3.474h-6.947v10.421H53z" fill="#1967d2"/></g><defs><clipPath id="A"><path fill="#fff" transform="translate(9 9)" d="M0 0h44v44H0z"/></clipPath></defs></svg>
